X:16
T:Gospel Verse, Easter VI
M:6/8
L:1/8
K:F min
V:1 clef=treble
[V:1] (FA)B cBA | (BA)G AGE | F3 z FF | FFG FEF | [M:9/8] (AG)F (GF)E C3 | [M:6/8] GAG F3 ||
w: All - who love me will | keep - my word, says the | Lord. And my | Fa-ther will love them and | we - will come - to them. | Al-le-lu-ia. ||

